icons/circle/48/drumkv1.svg

<svg version="1.1" viewBox="0 0 48 48" xmlns="http://www.w3.org/2000/svg">
 <defs>
  <linearGradient id="bg" x2="0" y1="47" y2="1" gradientUnits="userSpaceOnUse">
   <stop style="stop-color:#b95f94" offset="0"/>
   <stop style="stop-color:#bf6d9d" offset="1"/>
  </linearGradient>
 </defs>
 <path d="m36.31 5c5.859 4.062 9.688 10.831 9.688 18.5 0 12.426-10.07 22.5-22.5 22.5-7.669 0-14.438-3.828-18.5-9.688 1.037 1.822 2.306 3.499 3.781 4.969 4.085 3.712 9.514 5.969 15.469 5.969 12.703 0 23-10.298 23-23 0-5.954-2.256-11.384-5.969-15.469-1.469-1.475-3.147-2.744-4.969-3.781zm4.969 3.781c3.854 4.113 6.219 9.637 6.219 15.719 0 12.703-10.297 23-23 23-6.081 0-11.606-2.364-15.719-6.219 4.16 4.144 9.883 6.719 16.219 6.719 12.703 0 23-10.298 23-23 0-6.335-2.575-12.06-6.719-16.219z" style="opacity:.05"/>
 <path d="m41.28 8.781c3.712 4.085 5.969 9.514 5.969 15.469 0 12.703-10.297 23-23 23-5.954 0-11.384-2.256-15.469-5.969 4.113 3.854 9.637 6.219 15.719 6.219 12.703 0 23-10.298 23-23 0-6.081-2.364-11.606-6.219-15.719z" style="opacity:.1"/>
 <path d="m31.25 2.375c8.615 3.154 14.75 11.417 14.75 21.13 0 12.426-10.07 22.5-22.5 22.5-9.708 0-17.971-6.135-21.12-14.75a23 23 0 0 0 44.875-7 23 23 0 0 0-16-21.875z" style="opacity:.2"/>
 <path d="m24 1c12.703 0 23 10.297 23 23s-10.297 23-23 23-23-10.297-23-23 10.297-23 23-23z" style="fill:url(#bg)"/>
 <path d="m40.03 7.531c3.712 4.084 5.969 9.514 5.969 15.469 0 12.703-10.297 23-23 23-5.954 0-11.384-2.256-15.469-5.969 4.178 4.291 10.01 6.969 16.469 6.969 12.703 0 23-10.298 23-23 0-6.462-2.677-12.291-6.969-16.469z" style="opacity:.1"/>
 <path d="m12.865 29.572c-0.02362 0.0044-0.04707 0.0096-0.07031 0.01563-0.4996 0.23387-0.71546 0.82813-0.48242 1.3281 0.23314 0.50035 0.82761 0.71715 1.3281 0.48438 0.02059-0.01101 0.04078-0.02274 0.06055-0.03516 0.37027 0.66583 0.79835 1.2978 1.2793 1.8887l-2.834 2.834c-0.19555 0.19555-0.19555 0.51148 0 0.70703l1.0586 1.0586c0.19555 0.19555 0.51148 0.19555 0.70703 0l2.834-2.834c0.59257 0.48259 1.2265 0.91199 1.8945 1.2832-0.01433 0.0184-0.02801 0.03729-0.04102 0.05664-0.23435 0.5005-0.01829 1.0962 0.48242 1.3301 0.50102 0.23409 1.0969 0.01708 1.3301-0.48438 0.0086-0.0225 0.01645-0.0453 0.02344-0.06836 1.4573 0.55947 3.0035 0.8519 4.5644 0.86328 1.5652-0.01122 3.1154-0.305 4.5762-0.86719 3e-3 0.02423 0.0069 0.04833 0.01172 0.07227 0.23387 0.4996 0.82813 0.71546 1.3281 0.48242 0.50035-0.23314 0.71715-0.82761 0.48438-1.3281-0.01301-0.01935-0.02669-0.03824-0.04102-0.05664 2.0697-1.1668 3.7801-2.8786 4.9453-4.9492 0.01766 0.01628 0.0359 0.03191 0.05469 0.04687 0.50052 0.23278 1.095 0.01597 1.3281-0.48438 0.23303-0.49999 0.01718-1.0943-0.48242-1.3281-0.02324-0.0061-0.04669-0.01127-0.07031-0.01563 0.56106-1.4596 0.85417-3.0085 0.86523-4.5723-0.0014-1.5647-0.28524-3.1162-0.83789-4.5801 0.01438-0.0023 0.02871-0.0049 0.04297-0.0078 0.50146-0.23316 0.71847-0.82906 0.48438-1.3301-0.16607-0.35495-0.52416-0.58019-0.91602-0.57617-0.14314 0.0013-0.28434 0.03322-0.41406 0.09375-0.01126 0.0089-0.02233 0.01799-0.0332 0.02734-1.1667-2.0731-2.88-3.7864-4.9531-4.9531 0.0093-0.01087 0.01847-0.02194 0.02734-0.0332 0.23278-0.50052 0.01597-1.095-0.48438-1.3281-0.12972-0.06053-0.27092-0.0925-0.41406-0.09375-0.39115-0.0032-0.74829 0.22187-0.91406 0.57617-0.0029 0.01426-0.0055 0.02859-0.0078 0.04297 0 0-16.785 16.75-16.715 16.734z" style="opacity:.1"/>
 <circle cx="24" cy="24" r="13" style="fill:#afafaf"/>
 <circle cx="24" cy="24" r="11" style="fill:#d8d6cc"/>
 <path d="m18.498 11.217a1 1 0 0 0-0.41406 0.09375 1 1 0 0 0-0.48438 1.3301 1 1 0 0 0 1.3301 0.48242 1 1 0 0 0 0.48242-1.3281 1 1 0 0 0-0.91406-0.57812zm11.004 0.001953a1 1 0 0 0-0.91406 0.57617 1 1 0 0 0 0.48242 1.3301 1 1 0 0 0 1.3301-0.48438 1 1 0 0 0-0.48438-1.3281 1 1 0 0 0-0.41406-0.09375zm-17.277 6.2871a1 1 0 0 0-0.91406 0.57812 1 1 0 0 0 0.48438 1.3281 1 1 0 0 0 1.3281-0.48242 1 1 0 0 0-0.48242-1.3301 1 1 0 0 0-0.41602-0.09375zm23.549 0a1 1 0 0 0-0.41406 0.09375 1 1 0 0 0-0.48242 1.3281 1 1 0 0 0 1.3281 0.48438 1 1 0 0 0 0.48438-1.3301 1 1 0 0 0-0.91602-0.57617zm-23.562 10.988a1 1 0 0 0-0.41602 0.09375 1 1 0 0 0-0.48242 1.3281 1 1 0 0 0 1.3281 0.48438 1 1 0 0 0 0.48438-1.3301 1 1 0 0 0-0.91406-0.57617zm23.578 0a1 1 0 0 0-0.91406 0.57812 1 1 0 0 0 0.48438 1.3281 1 1 0 0 0 1.3281-0.48438 1 1 0 0 0-0.48242-1.3281 1 1 0 0 0-0.41602-0.09375zm-6.3027 6.2871a1 1 0 0 0-0.41406 0.09375 1 1 0 0 0-0.48438 1.3301 1 1 0 0 0 1.3281 0.48242 1 1 0 0 0 0.48438-1.3281 1 1 0 0 0-0.91406-0.57812zm-10.973 0.001953a1 1 0 0 0-0.91406 0.57617 1 1 0 0 0 0.48242 1.3301 1 1 0 0 0 1.3301-0.48438 1 1 0 0 0-0.48438-1.3281 1 1 0 0 0-0.41406-0.09375z" style="fill:#afafaf"/>
 <path d="m25 22c-1.6569 0-3 1.3431-3 3 4.21e-4 0.4388 0.09709 0.87216 0.2832 1.2695 0 0-7.3025 6.9842-7.334 7.0156 0.59436 0.59131 1.2445 1.1237 1.9414 1.5898l1.9629-1.9629c0.12318-0.12318 0.16872-0.29491 0.13672-0.45312l4.7402-4.7422c0.39737 0.18611 0.83074 0.28278 1.2695 0.2832 1.6569 0 3-1.3431 3-3s-1.3431-3-3-3z" style="opacity:.1"/>
 <rect transform="rotate(45)" x="32.917" y="1.5318" width="2.048" height="12.288" rx=".68267" style="fill:#90724c"/>
 <circle cx="24" cy="24" r="3" style="fill:#505050"/>
 <rect transform="rotate(45)" x="32.693" y="9.4415" width="2.496" height="7.9871" rx=".49919" style="fill:#505050"/>
</svg>

<svg xmlns="http://www.w3.org/2000/svg" viewBox="0 0 48 48">
 <defs>
  <linearGradient id="linearGradient4249" y1="47" x2="0" y2="1" gradientUnits="userSpaceOnUse">
   <stop style="stop-color:#b95f94;stop-opacity:1"/>
   <stop offset="1" style="stop-color:#bf6d9d;stop-opacity:1"/>
  </linearGradient>
 </defs>
 <g>
  <path d="m 36.31 5 c 5.859 4.062 9.688 10.831 9.688 18.5 c 0 12.426 -10.07 22.5 -22.5 22.5 c -7.669 0 -14.438 -3.828 -18.5 -9.688 c 1.037 1.822 2.306 3.499 3.781 4.969 c 4.085 3.712 9.514 5.969 15.469 5.969 c 12.703 0 23 -10.298 23 -23 c 0 -5.954 -2.256 -11.384 -5.969 -15.469 c -1.469 -1.475 -3.147 -2.744 -4.969 -3.781 z m 4.969 3.781 c 3.854 4.113 6.219 9.637 6.219 15.719 c 0 12.703 -10.297 23 -23 23 c -6.081 0 -11.606 -2.364 -15.719 -6.219 c 4.16 4.144 9.883 6.719 16.219 6.719 c 12.703 0 23 -10.298 23 -23 c 0 -6.335 -2.575 -12.06 -6.719 -16.219 z" style="opacity:0.05"/>
  <path d="m 41.28 8.781 c 3.712 4.085 5.969 9.514 5.969 15.469 c 0 12.703 -10.297 23 -23 23 c -5.954 0 -11.384 -2.256 -15.469 -5.969 c 4.113 3.854 9.637 6.219 15.719 6.219 c 12.703 0 23 -10.298 23 -23 c 0 -6.081 -2.364 -11.606 -6.219 -15.719 z" style="opacity:0.1"/>
  <path d="m 31.25 2.375 c 8.615 3.154 14.75 11.417 14.75 21.13 c 0 12.426 -10.07 22.5 -22.5 22.5 c -9.708 0 -17.971 -6.135 -21.12 -14.75 a 23 23 0 0 0 44.875 -7 a 23 23 0 0 0 -16 -21.875 z" style="opacity:0.2"/>
 </g>
 <g>
  <path d="m 24 1 c 12.703 0 23 10.297 23 23 c 0 12.703 -10.297 23 -23 23 -12.703 0 -23 -10.297 -23 -23 0 -12.703 10.297 -23 23 -23 z" style="fill:url(#linearGradient4249);fill-opacity:1"/>
 </g>
 <g>
  <path d="m 40.03 7.531 c 3.712 4.084 5.969 9.514 5.969 15.469 0 12.703 -10.297 23 -23 23 c -5.954 0 -11.384 -2.256 -15.469 -5.969 4.178 4.291 10.01 6.969 16.469 6.969 c 12.703 0 23 -10.298 23 -23 0 -6.462 -2.677 -12.291 -6.969 -16.469 z" style="opacity:0.1"/>
 </g>
 <path d="M 25 12 A 13 13 0 0 0 20.428 12.836 A 1 1 0 0 0 20.412 12.795 A 1 1 0 0 0 19.08 12.313 A 1 1 0 0 0 18.6 13.641 A 1 1 0 0 0 18.623 13.689 A 13 13 0 0 0 13.682 18.621 A 1 1 0 0 0 13.641 18.6 A 1 1 0 0 0 12.313 19.08 A 1 1 0 0 0 12.795 20.412 A 1 1 0 0 0 12.846 20.434 A 13 13 0 0 0 12 25 A 13 13 0 0 0 12.836 29.572 A 1 1 0 0 0 12.795 29.588 A 1 1 0 0 0 12.313 30.916 A 1 1 0 0 0 13.641 31.4 A 1 1 0 0 0 13.689 31.377 A 13 13 0 0 0 14.967 33.22 L 12.15 36.04 C 11.95 36.24 11.95 36.563 12.15 36.764 L 13.236 37.85 C 13.437 38.05 13.76 38.05 13.961 37.85 L 16.775 35.04 A 13 13 0 0 0 18.621 36.32 A 1 1 0 0 0 18.6 36.36 A 1 1 0 0 0 19.08 37.688 A 1 1 0 0 0 20.412 37.21 A 1 1 0 0 0 20.434 37.15 A 13 13 0 0 0 25 38 A 13 13 0 0 0 29.572 37.16 A 1 1 0 0 0 29.588 37.21 A 1 1 0 0 0 30.916 37.688 A 1 1 0 0 0 31.4 36.36 A 1 1 0 0 0 31.377 36.31 A 13 13 0 0 0 36.32 31.379 A 1 1 0 0 0 36.36 31.4 A 1 1 0 0 0 37.688 30.916 A 1 1 0 0 0 37.21 29.588 A 1 1 0 0 0 37.15 29.566 A 13 13 0 0 0 38 25 A 13 13 0 0 0 37.16 20.428 A 1 1 0 0 0 37.21 20.412 A 1 1 0 0 0 37.688 19.08 A 1 1 0 0 0 36.36 18.6 A 1 1 0 0 0 36.31 18.623 A 13 13 0 0 0 31.379 13.682 A 1 1 0 0 0 31.4 13.641 A 1 1 0 0 0 30.916 12.313 A 1 1 0 0 0 29.588 12.795 A 1 1 0 0 0 29.566 12.846 A 13 13 0 0 0 25 12 z" style="fill:#000;opacity:0.1;fill-opacity:1"/>
 <g>
  <circle r="13" cy="24" cx="24" style="fill:#afafaf;fill-opacity:1"/>
  <circle r="11" cy="24" cx="24" style="fill:#d8d6cc;fill-opacity:1"/>
  <circle transform="matrix(0.90630779,-0.42261826,0.42261826,0.90630779,0,0)" r="1" cy="31.894" cx="-1.391" style="fill:#afafaf;fill-opacity:1"/>
  <circle transform="matrix(0.90630779,0.42261826,-0.42261826,0.90630779,0,0)" cx="18.894" cy="11.609" r="1" style="fill:#afafaf;fill-opacity:1"/>
  <circle r="1" cy="-11.609" cx="18.894" transform="matrix(0.42261826,0.90630779,-0.90630779,0.42261826,0,0)" style="fill:#afafaf;fill-opacity:1"/>
  <circle transform="matrix(-0.42261826,0.90630779,-0.90630779,-0.42261826,0,0)" cx="-1.391" cy="-31.894" r="1" style="fill:#afafaf;fill-opacity:1"/>
  <circle r="1" cy="-31.894" cx="-24.609" transform="matrix(-0.90630779,0.42261826,-0.42261826,-0.90630779,0,0)" style="fill:#afafaf;fill-opacity:1"/>
  <circle transform="matrix(-0.90630779,-0.42261826,0.42261826,-0.90630779,0,0)" cx="-44.894" cy="-11.609" r="1" style="fill:#afafaf;fill-opacity:1"/>
  <circle r="1" cy="11.609" cx="-44.894" transform="matrix(-0.42261826,-0.90630779,0.90630779,-0.42261826,0,0)" style="fill:#afafaf;fill-opacity:1"/>
  <circle transform="matrix(0.42261826,-0.90630779,0.90630779,0.42261826,0,0)" cx="-24.609" cy="31.894" r="1" style="fill:#afafaf;fill-opacity:1"/>
  <path d="M 25.22 22 A 2.816 2.816 0 0 0 23.19 22.824 A 2.816 2.816 0 0 0 22.607 25.943 L 17.707 30.844 C 17.538 30.8 17.352 30.838 17.219 30.971 L 14.912 33.28 A 13 13 0 0 0 16.922 34.889 L 19.03 32.781 C 19.16 32.648 19.2 32.462 19.16 32.29 L 24.05 27.395 A 2.816 2.816 0 0 0 27.18 26.807 A 2.816 2.816 0 0 0 27.18 22.824 A 2.816 2.816 0 0 0 25.22 22 z" style="fill:#000;opacity:0.1;fill-opacity:1;stroke:none;fill-rule:evenodd"/>
  <g transform="translate(22.000001,0)">
   <rect transform="matrix(0.96544758,0.96544758,-0.7240857,0.7240857,6.4681465,4.5674192)" rx="0.5" y="18" x="7" height="12" width="1.5" style="fill:#90724c;fill-opacity:1;stroke:none;fill-rule:evenodd"/>
   <circle cx="18.385" cy="15.296" r="2.816" transform="matrix(0.70710678,0.70710678,-0.70710678,0.70710678,0,0)" style="fill:#505050;fill-opacity:1;stroke:none"/>
   <rect width="2.56" height="8.192" x="17.1" y="24.768" rx="0.512" transform="matrix(0.70710678,0.70710678,-0.70710678,0.70710678,0,0)" style="fill:#505050;fill-opacity:1;stroke:none"/>
  </g>
 </g>
</svg>
